packages/icons/raw/imported/ControlsEye.svg

<svg width="32" height="32" viewBox="0 0 32 32" fill="none" xmlns="http://www.w3.org/2000/svg">
<path d="M24.6826 12.2954C24.8959 12.4707 25.211 12.4399 25.3863 12.2265C25.5616 12.0131 25.5308 11.6981 25.3174 11.5228L24.6826 12.2954ZM6.68258 11.5228C6.46922 11.6981 6.43837 12.0131 6.61368 12.2265C6.78898 12.4399 7.10406 12.4707 7.31742 12.2954L6.68258 11.5228ZM23.8077 17.7045C23.8077 17.737 23.7869 17.8551 23.6816 18.0733C23.5829 18.2776 23.4305 18.5282 23.2241 18.8101C22.8121 19.3732 22.2071 20.0314 21.4534 20.6581C19.9389 21.9173 17.8852 23 15.6538 23V24C18.2019 24 20.4751 22.772 22.0927 21.427C22.905 20.7517 23.5674 20.0344 24.0311 19.4007C24.2627 19.0843 24.4503 18.7812 24.5821 18.5081C24.7074 18.2487 24.8077 17.9656 24.8077 17.7045H23.8077ZM15.6538 23C13.4225 23 11.3688 21.9173 9.85432 20.6581C9.10058 20.0314 8.49563 19.3732 8.08355 18.8101C7.87723 18.5282 7.72476 18.2776 7.62607 18.0733C7.52075 17.8551 7.5 17.737 7.5 17.7045H6.5C6.5 17.9656 6.60033 18.2487 6.72556 18.5081C6.85742 18.7812 7.04498 19.0843 7.27657 19.4007C7.74031 20.0344 8.40269 20.7517 9.21499 21.427C10.8326 22.772 13.1058 24 15.6538 24V23ZM7.5 17.7045C7.5 17.6721 7.52075 17.5539 7.62607 17.3358C7.72476 17.1314 7.87723 16.8808 8.08355 16.5989C8.49563 16.0358 9.10058 15.3776 9.85432 14.7509C11.3688 13.4917 13.4225 12.4091 15.6538 12.4091V11.4091C13.1058 11.4091 10.8326 12.6371 9.21499 13.982C8.40269 14.6574 7.74031 15.3747 7.27657 16.0083C7.04498 16.3248 6.85742 16.6279 6.72556 16.9009C6.60033 17.1603 6.5 17.4434 6.5 17.7045H7.5ZM15.6538 12.4091C17.8852 12.4091 19.9389 13.4917 21.4534 14.7509C22.2071 15.3776 22.8121 16.0358 23.2241 16.5989C23.4305 16.8808 23.5829 17.1314 23.6816 17.3358C23.7869 17.5539 23.8077 17.6721 23.8077 17.7045H24.8077C24.8077 17.4434 24.7074 17.1603 24.5821 16.9009C24.4503 16.6279 24.2627 16.3248 24.0311 16.0083C23.5674 15.3747 22.905 14.6574 22.0927 13.982C20.4751 12.6371 18.2019 11.4091 15.6538 11.4091V12.4091ZM18.9616 15.6591C18.9616 17.4468 17.4879 18.9091 15.6539 18.9091V19.9091C18.0257 19.9091 19.9616 18.0134 19.9616 15.6591H18.9616ZM15.6539 18.9091C13.8199 18.9091 12.3462 17.4468 12.3462 15.6591H11.3462C11.3462 18.0134 13.282 19.9091 15.6539 19.9091V18.9091ZM12.3462 15.6591C12.3462 13.8713 13.8198 12.4091 15.6538 12.4091V11.4091C13.282 11.4091 11.3462 13.3047 11.3462 15.6591H12.3462ZM15.6538 12.4091C17.4879 12.4091 18.9616 13.8713 18.9616 15.6591H19.9616C19.9616 13.3047 18.0257 11.4091 15.6538 11.4091V12.4091ZM16 9C19.1548 9 22.1227 10.1921 24.6826 12.2954L25.3174 11.5228C22.6056 9.29461 19.419 8 16 8V9ZM7.31742 12.2954C9.87726 10.1921 12.8452 9 16 9V8C12.581 8 9.39442 9.29461 6.68258 11.5228L7.31742 12.2954Z" fill="black"/>
</svg>

<svg width="32" height="32" fill="none" xmlns="http://www.w3.org/2000/svg"><path d="M24.683 12.295a.5.5 0 1 0 .634-.772l-.634.772Zm-18-.772a.5.5 0 1 0 .634.772l-.634-.772Zm17.125 6.181c0 .033-.021.151-.126.37a4.913 4.913 0 0 1-.458.736 10.736 10.736 0 0 1-1.77 1.848c-1.515 1.26-3.569 2.342-5.8 2.342v1c2.548 0 4.821-1.228 6.439-2.573a11.727 11.727 0 0 0 1.938-2.026c.232-.317.42-.62.551-.893.125-.26.226-.542.226-.803h-1ZM15.654 23c-2.232 0-4.285-1.083-5.8-2.342a10.738 10.738 0 0 1-1.77-1.848 4.918 4.918 0 0 1-.458-.737c-.105-.218-.126-.336-.126-.369h-1c0 .262.1.545.226.804.131.273.319.576.55.893a11.728 11.728 0 0 0 1.939 2.026C10.833 22.772 13.105 24 15.654 24v-1ZM7.5 17.704c0-.032.02-.15.126-.368.099-.205.251-.455.458-.737a10.738 10.738 0 0 1 1.77-1.848c1.515-1.26 3.569-2.342 5.8-2.342v-1c-2.548 0-4.821 1.228-6.439 2.573a11.736 11.736 0 0 0-1.938 2.026c-.232.317-.42.62-.551.893-.126.26-.226.542-.226.803h1Zm8.154-5.295c2.231 0 4.285 1.083 5.8 2.342a10.736 10.736 0 0 1 1.77 1.848c.206.282.359.532.458.737.105.218.126.336.126.369h1c0-.262-.1-.545-.226-.804a5.896 5.896 0 0 0-.55-.893 11.734 11.734 0 0 0-1.94-2.026c-1.617-1.345-3.89-2.573-6.438-2.573v1Zm3.308 3.25c0 1.788-1.474 3.25-3.308 3.25v1c2.372 0 4.308-1.896 4.308-4.25h-1Zm-3.308 3.25c-1.834 0-3.308-1.462-3.308-3.25h-1c0 2.354 1.936 4.25 4.308 4.25v-1Zm-3.308-3.25c0-1.788 1.474-3.25 3.308-3.25v-1c-2.372 0-4.308 1.896-4.308 4.25h1Zm3.308-3.25c1.834 0 3.308 1.462 3.308 3.25h1c0-2.354-1.936-4.25-4.308-4.25v1ZM16 9c3.155 0 6.123 1.192 8.683 3.295l.634-.772C22.606 9.295 19.42 8 16 8v1Zm-8.683 3.295C9.877 10.192 12.845 9 16 9V8c-3.419 0-6.606 1.295-9.317 3.523l.634.772Z" fill="#000"/></svg>
